images/header/i-loupe_lg.svg

<svg xmlns="http://www.w3.org/2000/svg" width="24" height="24"><path fill-rule="evenodd" d="M22.667 21.859l-5.673-5.941a9.694 9.694 0 0 0 2.258-6.229C19.252 4.347 14.934 0 9.628 0 4.322 0 .004 4.347.004 9.689c0 5.343 4.318 9.69 9.624 9.69 1.992 0 3.89-.605 5.514-1.753l5.716 5.986c.239.249.56.387.904.387.326 0 .635-.125.87-.353a1.271 1.271 0 0 0 .035-1.787zM9.628 2.527c3.922 0 7.113 3.213 7.113 7.162 0 3.95-3.191 7.162-7.113 7.162-3.922 0-7.113-3.212-7.113-7.162 0-3.949 3.191-7.162 7.113-7.162z"/></svg>

<svg
        xmlns="http://www.w3.org/2000/svg"
        xmlns:xlink="http://www.w3.org/1999/xlink"
        width="24px" height="24px">
    <path fill-rule="evenodd" fill="rgb(0, 0, 0)"
          d="M22.667,21.859 L16.994,15.918 C18.453,14.173 19.252,11.976 19.252,9.689 C19.252,4.347 14.934,-0.000 9.628,-0.000 C4.322,-0.000 0.004,4.347 0.004,9.689 C0.004,15.032 4.322,19.379 9.628,19.379 C11.620,19.379 13.518,18.774 15.142,17.626 L20.858,23.612 C21.097,23.861 21.418,23.999 21.762,23.999 C22.088,23.999 22.397,23.874 22.632,23.646 C23.131,23.163 23.147,22.362 22.667,21.859 ZM9.628,2.527 C13.550,2.527 16.741,5.740 16.741,9.689 C16.741,13.639 13.550,16.851 9.628,16.851 C5.706,16.851 2.515,13.639 2.515,9.689 C2.515,5.740 5.706,2.527 9.628,2.527 Z"/>
</svg>
